X: 1
T: Eminem
M: 9/8
L: 1/8
R: 
K: D Dorian
|: D2 A3 A2 A2 | Ac A2 G AG F2 | G2 A3 A2 A2 | Ac A2 G AG F2 |
AF G3 D2 DC | DE FGE F4 | AF G3 D2 DC |1 DE FGE F4 :|2 DE FGE D4 ||
